X: 58
T: Spancil Hill
R: waltz
M: 3/4
L: 1/8
K: Edor
|: dc | "Em" B4 E2 | B4 cB | "D" A4 F2 | D4 E2 | F2 A2 G2  | E4 D2    | "Em" E6- | E4 ||
   B2 | "Em" B4 e2 | e4 f2 | e4 d2     | B4 c2 | "D" d4 e2 | d2 c2 B2 | A6-      | A4  |
   A2 | "Em" B4 e2 | e4 f2 | e4 d2     | B4 c2 | "D" d4 e2 | d2 c2 B2 | A6-      | A4 ||
   dc | "Em" B4 E2 | B4 cB | "D" A4 F2 | D4 E2 | F2 A2 F2  | E4 D2    | "Em" E6- | E4 :|



